X:1
L:1/4
Q:1/4=200
M:6/8
V:1
V:2 clef=bass
K:F
[V:1] [FAd] z/ d/e/f/ | [dfa] z/ d/e/f/ | [dfb] z/ d/e/f/ | [cfa]3/4 z/4 [cfa]3/4 z/4 [fc']3/4 z/4 |
[V:2] [D,,D,]3/4 z3/4 [D,,D,]/[D,,D,]/[D,,D,]/ | [D,,D,]3/4 z3/4 [D,,D,]/[D,,D,]/[D,,D,]/ | [B,,,B,,]3/4 z3/4 [B,,,B,,]/[B,,,B,,]/[B,,,B,,]/ | [F,,F,]3/4 z3/4 [F,,F,]/[F,,F,]/[F,,F,]/ |